fs/squares_nested_20_regular.svg

<svg viewBox="0 0 20 20" fill="none" xmlns="http://www.w3.org/2000/svg" height="1em" width="1em">
  <path d="M6 3C4.34315 3 3 4.34315 3 6V14C3 15.6569 4.34315 17 6 17H14C15.6569 17 17 15.6569 17 14V6C17 4.34315 15.6569 3 14 3H6ZM16 7.76389C15.4692 7.28885 14.7684 7 14 7H10C8.34315 7 7 8.34315 7 10V14C7 14.7684 7.28885 15.4692 7.76389 16H6C4.89543 16 4 15.1046 4 14V6C4 4.89543 4.89543 4 6 4H14C15.1046 4 16 4.89543 16 6V7.76389ZM10 16C8.89543 16 8 15.1046 8 14V10C8 8.89543 8.89543 8 10 8H14C15.1046 8 16 8.89543 16 10V14C16 15.1046 15.1046 16 14 16H10Z" fill="#212121"/>
</svg>

<svg viewBox="0 0 20 20" fill="none" xmlns="http://www.w3.org/2000/svg" height="1em" width="1em">
  <path d="M6 3a3 3 0 0 0-3 3v8a3 3 0 0 0 3 3h8a3 3 0 0 0 3-3V6a3 3 0 0 0-3-3H6Zm10 4.764A2.989 2.989 0 0 0 14 7h-4a3 3 0 0 0-3 3v4c0 .768.289 1.47.764 2H6a2 2 0 0 1-2-2V6a2 2 0 0 1 2-2h8a2 2 0 0 1 2 2v1.764ZM10 16a2 2 0 0 1-2-2v-4a2 2 0 0 1 2-2h4a2 2 0 0 1 2 2v4a2 2 0 0 1-2 2h-4Z" fill="#212121"/>
</svg>
